!!!COM: Bach, Johann Sebastian
!!!OPR: Joh. Seb. Bachs vierstimmige Choralges‰nge
!!!XEN: Four-part Chorales
!!!OTL: 139. Nun ruhen alle W‰lder
!!!SCT: BWV 392
!!!SCA: Thematisch-systematisches Verzeichnis der musikalischen Werke Johann Sebastian Bach: Bach-Werke-Verzeichnis (Schmieder)
!!!YOR: Bach Gesellschaft Edition xxxix
!!!ENC: Steven Rasmussen
!!!CDT: 1685/3//-1750/7/28/
!!!OCY: Deutschland
!!!YEC: Copyright (c) 1994, 2000 Center for Computer Assisted Research in the Humanities
!!!YEM: Rights to all derivative editions reserved
!!!YEN: United States of America
**kern	**silbe	**kern	**kern	**kern
*I:[SOPRANO]	*I:[SOPRANO]	*I:[ALTO]	*I:[TENORE]	*I:[BASSO]
*clefG2	*	*clefG2	*clefGv2	*clefF4
*k[b-e-]	*	*k[b-e-]	*k[b-e-]	*k[b-e-]
*B-:	*	*B-:	*B-:	*B-:
*M4/4	*	*M4/4	*M4/4	*M4/4
4dd	Nun	4b-	4f	4BB-
=1	=1	=1	=1	=1
4b-	ru-	4g	4e-	4E-
4cc	-hen	4a	4e-	8DL
.	.	.	.	8CJ
8ddL	al-	4b-	4f	4BB-
8ee-J	.	.	.	.
4ff	-le	4b-	4f	4D
=2	=2	=2	=2	=2
2ee-	W√§l-	4b-	4g	4C
.	.	4a	4f	4F
4dd;	-der,	4b-;	4f;	4BB-;
8ddL	Vieh,	4f	8B-L	4B-
8ee-J	.	.	8cJ	.
=3	=3	=3	=3	=3
4ff	Men-	4b-	8dL	8BB-L
.	.	.	8e-J	8CJ
4ff	-schen,	4b-	4f	8DL
.	.	.	.	8E-J
4cc	St√§dt'	8b-L	4f	4F
.	.	8aJ	.	.
8ddL	und	4a	8fL	4D
8ccJ	.	.	8e-J	.
=4	=4	=4	=4	=4
2b-	Fel-	2g	4d	8GL
.	.	.	.	8F
.	.	.	4c	8En
.	.	.	.	8CJ
4a;	-der,	4f;	4c;	4F;
4f	es	4c	4A	8FL
.	.	.	.	8E-J
=5	=5	=5	=5	=5
4b-	schl√§ft	4f	8B-L	4D
.	.	.	8dJ	.
4cc	die	8gL	4e-	4C
.	.	8aJ	.	.
8ddL	gan-	4b-	8fL	4BB-
16ee-L	.	.	8dJ	.
16ffJJ	.	.	.	.
8ee-L	-ze	4b-	4B-	4E-
8ddJ	.	.	.	.
=6	=6	=6	=6	=6
2.cc;	Welt'	2.f;	2.A;	2.F;
4dd	ihr	4a	4d	4F#
=7	=7	=7	=7	=7
4b-	a-	8aL	8dL	4G
.	.	8gJ	8e-J	.
4cc	-ber,	8gL	8e-L	4A
.	.	8fJ	8fJ	.
8ddL	mei-	8fL	4d	4B-
8ee-J	.	8gJ	.	.
4ff	-ne	8a-L	4d	4Bn
.	.	8gJ	.	.
=8	=8	=8	=8	=8
2ee-	Sin-	4g	4G	4c
.	.	4f#	4A	4C
4dd;	-nen,	4g;	4Bn;	4G;
8ddL	auf,	4b-	4g	4G
8ee-J	.	.	.	.
=9	=9	=9	=9	=9
4ff	auf!	8ccL	8fL	8AL
.	.	8aJ	8e-J	8FJ
4ff	ihr	4b-	4d	4B-
4cc	sollt	8gL	8enL	8B-L
.	.	8fJ	8fJ	8AJ
4dd	be-	4a	4f	8GL
.	.	.	.	8FJ
=10	=10	=10	=10	=10
2b-	-gin-	4a	4f	4G
.	.	4g	4en	4C
4a;	-nen,	4f;	4c;	4F;
4f	was	4c	4A	8FL
.	.	.	.	8E-J
=11	=11	=11	=11	=11
4b-	eu-	4f	4.B-	4D
4cc	-rem	4e-	.	4C
.	.	.	8A	.
4dd	Sch√∂-	4f	4B-	4BB-
8ccL	-pfer	4g	4B-	4E-
16ddL	.	.	.	.
16ee-JJ	.	.	.	.
=12	=12	=12	=12	=12
4dd	wohl-	4f	4B-	4F
4cc	-ge-	4f	8AL	4FF
.	.	.	8e-J	.
4b-;	-f√§llt.	4f;	4d;	4BB-;
==|!	==|!	==|!	==|!	==|!
*-	*-	*-	*-	*-
!!!RWG: Key is interpreted using the Humdrum key tool.
!!!END: 1994/07/19
!!!EMD: Converted from MuseData to Humdrum Dec 19, 2000, by Andreas Kornstaedt using muse2kern.
!!!EED: Craig Stuart Sapp
!!!EEV: 2024/03/31
!!!ONB: Some non-unicode characters
